X:22
T:Planxty Davis
Z: id:dc-setdance-24
M:C|
L:1/8
K:D Major
FG|A2AB A2FG|AFAB A3B|AGFE DEFG|A2AB A2dc|!
B2Bc B2Ac|BABc B2dB|AGFE DEFA|B2Bd B2fa|!
bafb afeg|fedf e2de|fedB BAdF|A2AB A2dc|!
B2AB d2Bd|e2de f2ed|BABc d2F2|E4 D2:|!
fg|a2ab a2fg|afab a2fg|agfe defg|a2ab a2fa|!
b2ba b2fa|bafa b2fb|agfe defa|b2ba b2fa|!
bafb afeg|fedf e2de|fedB BAdF|A2AB A2dc|!
B2AB d2Bd|e2de f2ed|BABc d2F2|E4 D2:|!

